img/icon-msg.svg

<svg width="20" height="19" viewBox="0 0 20 19" fill="none" xmlns="http://www.w3.org/2000/svg">
<path d="M18.1356 11.7083C17.8653 11.7083 17.6463 11.9164 17.6463 12.1731V16.3006C17.6453 17.0705 16.9887 17.6944 16.1781 17.6952H2.44686C1.63634 17.6944 0.9797 17.0705 0.978744 16.3006V4.18684C0.9797 3.4171 1.63634 2.79317 2.44686 2.79227H6.79195C7.06225 2.79227 7.28132 2.58417 7.28132 2.32741C7.28132 2.07083 7.06225 1.86255 6.79195 1.86255H2.44686C1.09612 1.864 0.00152929 2.90376 0 4.18684V16.3008C0.00152929 17.5838 1.09612 18.6236 2.44686 18.625H16.1781C17.5289 18.6236 18.6235 17.5838 18.625 16.3008V12.1731C18.625 11.9164 18.4059 11.7083 18.1356 11.7083V11.7083Z" fill="#FF0032"/>
<path d="M18.6552 0.61367C17.7997 -0.204557 16.4128 -0.204557 15.5573 0.61367L6.87264 8.91996C6.81312 8.97689 6.77015 9.04745 6.74771 9.12493L5.60565 13.0684C5.55869 13.2301 5.60641 13.4032 5.73039 13.522C5.85456 13.6405 6.03559 13.6862 6.20463 13.6415L10.3277 12.549C10.4087 12.5275 10.4825 12.4864 10.542 12.4295L19.2264 4.123C20.0806 3.30423 20.0806 1.97877 19.2264 1.16L18.6552 0.61367ZM7.93331 9.22259L15.041 2.42435L17.3333 4.61678L10.2254 11.415L7.93331 9.22259ZM7.47542 10.1014L9.30677 11.8531L6.77357 12.5244L7.47542 10.1014ZM18.5381 3.46464L18.0218 3.95841L15.7293 1.76581L16.2458 1.27203C16.721 0.817544 17.4915 0.817544 17.9667 1.27203L18.5381 1.81837C19.0125 2.2734 19.0125 3.00979 18.5381 3.46464V3.46464Z" fill="#FF0032"/>
</svg>

<svg width="20" height="19" fill="none" xmlns="http://www.w3.org/2000/svg"><path d="M18.136 11.708c-.27 0-.49.208-.49.465v4.128c0 .77-.657 1.393-1.468 1.394H2.447c-.81 0-1.467-.625-1.468-1.394V4.187c0-.77.657-1.394 1.468-1.395h4.345c.27 0 .49-.208.49-.465a.478.478 0 0 0-.49-.464H2.447C1.097 1.864.002 2.903 0 4.187V16.3c.002 1.283 1.096 2.323 2.447 2.324h13.731c1.35-.001 2.445-1.041 2.447-2.324v-4.128a.478.478 0 0 0-.49-.465z" fill="#FF0032"/><path d="M18.655.614a2.262 2.262 0 0 0-3.098 0L6.873 8.92a.461.461 0 0 0-.125.205l-1.142 3.943a.452.452 0 0 0 .124.454.503.503 0 0 0 .475.12l4.123-1.093a.493.493 0 0 0 .214-.12l8.684-8.306a2.033 2.033 0 0 0 0-2.963l-.57-.546zM7.933 9.223l7.108-6.799 2.292 2.193-7.108 6.798-2.292-2.192zm-.458.878l1.832 1.752-2.533.671.701-2.423zm11.063-6.636l-.516.493-2.293-2.192.517-.494a1.256 1.256 0 0 1 1.72 0l.572.546a1.13 1.13 0 0 1 0 1.647z" fill="#FF0032"/></svg>
